X: 18077
T: Humours Of Ballyconnell, The
R: hornpipe
M: 4/4
K: Amixolydian
ed|:cA (3cde dcAe|AGEF GABd|BccB AGEe|ABcd ~e2dB|
Bcec cBAe|AEAB ce (3dcB|AeAG EDEG|1 ~A2 AB A2 ed:|2 ~A2 AB A2 (3dcB||
|:ABcd edce|dcdf gged|efga ba (3gab|a2ag ~a2af|
gedB =cA~A2|AEAB ce (3dcB|AeAG ED (3EFG|1 ~A2AB Ae (3dcB:|2 ~A2AB Aced||

